images/light/clear-all.svg

<svg height="1em" preserveAspectRatio="xMidYMid meet" transform="rotate(360deg)" viewBox="0 0 16 16" width="1em" xmlns="http://www.w3.org/2000/svg"><path d="m10 12.6.7.7 1.6-1.6 1.6 1.6.8-.7-1.7-1.6 1.7-1.6-.8-.8-1.6 1.7-1.6-1.7-.7.8 1.6 1.6zm-9-8.6h14v-1h-14zm0 3h14v-1h-14zm8 2.5v-.5h-8v1h8zm0 3.5v-1h-8v1z"/></svg>

<svg xmlns="http://www.w3.org/2000/svg" xmlns:xlink="http://www.w3.org/1999/xlink" aria-hidden="true" focusable="false" width="1em" height="1em" style="-ms-transform: rotate(360deg); -webkit-transform: rotate(360deg); transform: rotate(360deg);" preserveAspectRatio="xMidYMid meet" viewBox="0 0 16 16"><g fill="black"><path d="M10 12.6l.7.7l1.6-1.6l1.6 1.6l.8-.7L13 11l1.7-1.6l-.8-.8l-1.6 1.7l-1.6-1.7l-.7.8l1.6 1.6l-1.6 1.6zM1 4h14V3H1v1zm0 3h14V6H1v1zm8 2.5V9H1v1h8v-.5zM9 13v-1H1v1h8z"/></g></svg>
